uploads/global/expand-arrow-blue.svg

<svg fill="none" height="8" viewBox="0 0 12 8" width="12" xmlns="http://www.w3.org/2000/svg"><path d="m2.12539 7.00048 3.88-3.88 3.88 3.88c.18681.18726.44051.29249.70501.29249s.5182-.10523.705-.29249c.39-.39.39-1.02 0-1.41l-4.59001-4.59c-.39-.389996-1.02-.389996-1.41 0l-4.589999 4.59c-.390001.39-.39 1.02 0 1.41.389999.38 1.029999.39 1.419999 0z" fill="#06a0e3"/></svg>

<svg width="12" height="8" viewBox="0 0 12 8" fill="none" xmlns="http://www.w3.org/2000/svg">
<path d="M2.12539 7.00048L6.00539 3.12048L9.88539 7.00048C10.0722 7.18774 10.3259 7.29297 10.5904 7.29297C10.8549 7.29297 11.1086 7.18774 11.2954 7.00048C11.6854 6.61048 11.6854 5.98048 11.2954 5.59048L6.70539 1.00048C6.31539 0.610484 5.68539 0.610484 5.29539 1.00048L0.705391 5.59048C0.31539 5.98048 0.315391 6.61048 0.705391 7.00048C1.09539 7.38048 1.73539 7.39048 2.12539 7.00048Z" fill="#06A0E3"/>
</svg>
